X: 1
T: Kyrkmarsch
T: Church march
R: g\aangl\aat
M: 2/4
L: 1/16
Z: 2007 John Chambers <jc@trillian.mit.edu>
S: Northwest Spelmansnoter, Aug 2002
N: as taught by Bart Brashers
K: Gm
z2 \
|  d2de d2=e=f | g2g2 d4 \
| [c2A2][cA][AD] [B2G2][B2G2] | (AG)^FG A2D2 \
|  d2de d2=e=f | g2g2 d4 |
|  e2ed c2f2 | [d6D6] d2 \
|  [c2A2][cA][BG] [A2^F2]d2 | [B6G6] B2 \
|  (AB)AG (^FG)AB | [G6G,6] z2 :|
|: F2 \
|  F2d2 d2ed | c2f2 Hf3A \
|  B2Bc d2cB | A2d2 d3A \
|  [G4G,4] [G2G,2]AG | F2B2 B2F2 \
|  (GF)ED E2C2 | [D6A,6] F2 |
|  B2d2 d2ed | c2f2 f3A \
|  B2Bc d2cB | A3d d3A \
|  [G4G,4] [G2G,2]AG | F2B2 B2F2 \
|  (GF)ED (CF)Ac | [B6D6] :|
